X:1063
%%stretchlast 1
T:Furrows End, The
C:Joe Buchanan's Scottish Tome - Page 646.0
I:646 0
Z:Carl Allison
R:Waltz
L:1/4
M:3/4
K:A
C/D/ | "A"E>A c/e/ | "G7/E7"d c B | "F#m"c C/>E/ A/>d/ | "Em"c {dc}B "A7"A |
"D"F/(A/ A>)F | "C#m"E/(A/ A3/2) B/4c/4 | "Bm"B3 | "E7"B "F#m7"C "G#/C7"D |
"A"E>A c/e/ | "E7"d "F#"c "C7"B | "F#m"c C/>E/ A/>d/ | "Em"c {dc}B "A7"A |
"D"F/(A/ A>)d | "E7"c2 B | "D/A"A3 | "A"A2 :|
c/d/ | "A"e2 A | "A"e "Bm"{fe}d "C#m7"c | "D"d D/>F/ A/>d/ | "D"f "C#m"e "Bm"d |
"A"c3/2 ((3B/4c/4B/4) A/G/ | "F#m"E/(A/ A3/2) B/4c/4 | "Bm"B3 | "E7"B2 c/d/ | 
"A"e2 A | "A"e "Bm"{fe}d "C#m7"c | "D"d D/>F/ A/>d/ | "D"f "C#m"e>"Bm"d | 
"A"c/(A/ A3/2) c/4d/4 | "E7"c2 B | "D/A"A3 | "A"A2 c/d/ | 
"A"e2 A | "A"e "Bm"{fe}d "C#m7"c | "D"d D/>F A/>d/ | "D"f "C#m"e>"Bm"d | 
"A"c3/2 ((3B/4c/4B/4) A/G/ | "F#m"E/(A/ A3/2) B/4c/4 | "Bm"B3 | "E7"B "F#m7"C "Gdim7"D | 
"A"E>A c/e/ | "E7"d "F7"c "C#7"B | "F#m"c C/>E/ A/>d/ | "Em"c {dc}B "A7"A |
"D"F/(A/ A>)d | "E7"c2 B | "D"[A3F] "A"E "B7"{FE}D | "A"[AEC]2 |] 

